src/icons/logo.svg

<svg width="100" height="100" viewBox="0 0 100 100" fill="none" xmlns="http://www.w3.org/2000/svg">
<g clip-path="url(#clip0_32_80)">
<path d="M96.8421 46.3158C96.8421 58.8787 91.907 70.927 83.1224 79.8103C74.3378 88.6936 62.4233 93.6842 50 93.6842C37.5767 93.6842 25.6622 88.6936 16.8776 79.8103C8.09302 70.927 3.15788 58.8787 3.15788 46.3158L50 46.3158H96.8421Z" fill="#59C3FF"/>
<path d="M89.4762 46.3158C89.4762 41.132 88.4552 35.999 86.4714 31.2099C84.4877 26.4207 81.5801 22.0692 77.9146 18.4037C74.2491 14.7382 69.8976 11.8306 65.1084 9.84686C60.3193 7.86312 55.1863 6.8421 50.0025 6.8421C44.8187 6.84211 39.6858 7.86312 34.8966 9.84686C30.1074 11.8306 25.7559 14.7382 22.0904 18.4037C18.4249 22.0692 15.5173 26.4207 13.5336 31.2099C11.5498 35.999 10.5288 41.132 10.5288 46.3158L50.0025 46.3158H89.4762Z" fill="#7342FF"/>
<circle cx="50.0024" cy="46.8421" r="29.4737" fill="#FF7A00"/>
<path d="M67.9556 64.7288C61.9683 73.8624 38.0192 73.8624 32.032 64.7288C26.0447 55.5951 33.6794 37.2521 49.9938 22.1053C66.4494 36.2071 73.9428 55.5951 67.9556 64.7288Z" fill="#FFA800">
<animateTransform
  attributeName="transform"
  attributeType="XML"
  type="skewX"
  from="0"
  to="2"
  dur="2s"
  repeatCount="indefinite"
  values="0; 1; -1; 0" 
  keytimes="0; 0.5; 0.8; 1" 
/>
</path>
<path d="M40.2457 49.6784C39.2816 51.3044 37.6144 48.3291 37.6144 48.3291C37.6144 48.3291 36.1372 51.2936 37.2752 57.2226C38.4131 63.1515 41.8269 67.8947 52.0684 67.8947C62.3099 67.8947 62.6123 66.1569 64.5858 61.9658C66.5593 57.7746 63.9279 45.6304 60.6387 40.2329C60.6387 40.2329 57.7581 46.5504 56.6201 45.3646C55.4822 44.1788 50.7479 31.3889 48.7976 32.1368C46.8473 32.8847 41.2099 48.0525 40.2457 49.6784Z" fill="#FFF500">
<animateTransform
  attributeName="transform"
  attributeType="XML"
  type="skewX"
  from="0"
  to="2"
  dur="2s"
  repeatCount="indefinite"
  values="0; 2; -2; 0" 
  keytimes="0; 0.2; 0.8; 1" 
/>
</path>
</g>
<defs>
<clipPath id="clip0_32_80">
<rect width="100" height="100" fill="white"/>
</clipPath>
</defs>
</svg>

<svg xmlns="http://www.w3.org/2000/svg" width="100" height="100" fill="none"><g clip-path="url(#a)"><path fill="#59C3FF" d="M96.842 46.316c0 12.563-4.935 24.611-13.72 33.494C74.338 88.694 62.423 93.684 50 93.684c-12.423 0-24.338-4.99-33.122-13.874-8.785-8.883-13.72-20.931-13.72-33.494h93.684Z"/><path fill="#7342FF" d="M89.476 46.316a39.472 39.472 0 0 0-54.58-36.47 39.473 39.473 0 0 0-24.367 36.47h78.947Z"/><circle cx="50.002" cy="46.842" r="29.474" fill="#FF7A00"/><path fill="#FFA800" d="M67.956 64.729c-5.988 9.133-29.937 9.133-35.924 0-5.987-9.134 1.647-27.477 17.962-42.624 16.455 14.102 23.949 33.49 17.962 42.624Z"><animateTransform attributeName="transform" attributeType="XML" dur="2s" from="0" repeatCount="indefinite" to="2" type="skewX" values="0; 1; -1; 0"/></path><path fill="#FFF500" d="M40.246 49.678c-.964 1.626-2.632-1.349-2.632-1.349s-1.477 2.965-.339 8.894c1.138 5.928 4.552 10.672 14.793 10.672 10.242 0 10.544-1.738 12.518-5.93 1.973-4.19-.658-16.335-3.947-21.732 0 0-2.88 6.317-4.019 5.132-1.138-1.186-5.872-13.976-7.822-13.228-1.95.748-7.588 15.916-8.552 17.541Z"><animateTransform attributeName="transform" attributeType="XML" dur="2s" from="0" repeatCount="indefinite" to="2" type="skewX" values="0; 2; -2; 0"/></path></g><defs><clipPath id="a"><path fill="#fff" d="M0 0h100v100H0z"/></clipPath></defs></svg>
